X: 17538
T: Hills Of Tara, The
R: barndance
M: 4/4
K: Gdorian
|:d2g2 g2fg|a2ga gfd2|c2f2 f2=ef|g2f2 e2d2|
d2g2 g2fg|a2ga gfd2|c2de f2cd|A2G2 G4:|
D2G2 G2 (3ABc|d2d2 cAG2|C2F2 F3G|A2G2 F2D2|
D2G2 G2 (3ABc|dfdc d2g2|f2d2 dfdc|A2G2 G4|
D2G2 G2 (3ABc|d2d2 cAG2|~F3G ~F3G|A2G2 F2D2|
D2G2 G2 (3ABc|dfdc A2Bc|d2g2 dfdc|A2G2 G4||

